app/src/main/assets/symbols/shopping/pet.svg

<?xml version="1.0" encoding="UTF-8" standalone="no"?>
<svg
   xmlns:dc="http://purl.org/dc/elements/1.1/"
   xmlns:cc="http://creativecommons.org/ns#"
   xmlns:rdf="http://www.w3.org/1999/02/22-rdf-syntax-ns#"
   xmlns:svg="http://www.w3.org/2000/svg"
   xmlns="http://www.w3.org/2000/svg"
   id="svg2"
   viewBox="0 0 16 16"
   height="16"
   width="16"
   version="1.1">
   <metadata id="metadata8">
    <rdf:RDF>
      <cc:Work rdf:about="">
        <dc:format>image/svg+xml</dc:format>
        <dc:type rdf:resource="http://purl.org/dc/dcmitype/StillImage"/>
        <dc:title/>
      </cc:Work>
    </rdf:RDF>
  </metadata>
  <defs id="defs6"/>
  <rect width="16" height="16" x="0" y="0" id="canvas" style="fill:none;stroke:none;visibility:hidden"/>
  <path d="M 9.412959,0.00215164 C 8.1693111,0.14587964 7.4631991,1.5093558 7.3733471,2.6936522 7.2264421,3.7464942 7.6860601,5.0899481 8.7918901,5.3320382 9.750208,5.4175142 10.512633,4.5171926 10.825819,3.6583651 11.195679,2.5833906 11.206482,1.147845 10.309038,0.34250684 10.059753,0.12647084 9.739671,-0.00476426 9.412959,0.00215164 z m -5.0729339,0.056367 c -1.034807,0.074858 -1.5652,1.27744256 -1.493223,2.24276386 0.0088,1.2907239 0.717612,2.7424122 2.010186,3.0488129 0.963956,0.1042448 1.606661,-0.9181087 1.66656,-1.812036 0.123011,-1.3680543 -0.483132,-3.02530546 -1.855765,-3.43834986 -0.106687,-0.029465 -0.217332,-0.044089 -0.327758,-0.041191 z M 12.655043,4.2036246 c -1.388365,0.1017608 -2.266355,1.5813816 -2.326691,2.9184062 -0.07305,0.8707439 0.489487,1.9657608 1.436683,1.9057498 C 13.181597,8.8776256 14.035636,7.298817 14.00043,5.9270567 13.99133,5.1373276 13.490879,4.2365389 12.655043,4.2036246 z M 0.01075614,6.0085263 c -0.12855096,1.481506 0.908149,3.1560203 2.41413596,3.2493013 0.912778,-0.06096 1.343188,-1.121093 1.238576,-1.9598358 C 3.5801081,6.0604403 2.7526501,4.7931558 1.6775691,4.6275979 0.60248914,4.4620399 -0.00628982,5.221568 0.01075614,6.0085263 z M 7.1593651,7.2723472 c -1.411887,0.00329 -2.70277,0.9264694 -3.392913,2.1755314 -0.578235,0.9334254 -1.050947,1.9901564 -1.140853,3.1053424 0.01967,0.860048 0.840276,1.575842 1.663122,1.404534 1.173683,-0.152345 2.222485,-0.967418 3.44297,-0.8147 1.014283,0.08097 1.8507729,0.867482 2.8748439,0.856051 0.994345,0.03734 1.56796,-1.102139 1.188753,-1.994632 C 11.387234,10.726579 10.596107,9.6151936 9.746977,8.6142466 9.069618,7.87643 8.1824521,7.2396817 7.1593651,7.2723472 z" id="pet" style="fill:#ac39ac;fill-opacity:1;stroke:none" transform="translate(1,1)"/>
</svg>

<?xml version="1.0" encoding="UTF-8"?>
<svg version="1.1" viewBox="0 0 16 16" xmlns="http://www.w3.org/2000/svg" xmlns:cc="http://creativecommons.org/ns#" xmlns:dc="http://purl.org/dc/elements/1.1/" xmlns:rdf="http://www.w3.org/1999/02/22-rdf-syntax-ns#">
<metadata>
<rdf:RDF>
<cc:Work rdf:about="">
<dc:format>image/svg+xml</dc:format>
<dc:type rdf:resource="http://purl.org/dc/dcmitype/StillImage"/>
<dc:title/>
</cc:Work>
</rdf:RDF>
</metadata>
<rect width="16" height="16" fill="none" visibility="hidden"/>
<path transform="translate(1,1)" d="m9.413 0.0021516c-1.2436 0.14373-1.9498 1.5072-2.0396 2.6915-0.1469 1.0528 0.31271 2.3963 1.4185 2.6384 0.95832 0.085476 1.7207-0.81485 2.0339-1.6737 0.36986-1.075 0.38066-2.5105-0.51678-3.3159-0.24928-0.21604-0.56937-0.34727-0.89608-0.34036zm-5.0729 0.056367c-1.0348 0.074858-1.5652 1.2774-1.4932 2.2428 0.0088 1.2907 0.71761 2.7424 2.0102 3.0488 0.96396 0.10424 1.6067-0.91811 1.6666-1.812 0.12301-1.3681-0.48313-3.0253-1.8558-3.4383-0.10669-0.029465-0.21733-0.044089-0.32776-0.041191zm8.315 4.1451c-1.3884 0.10176-2.2664 1.5814-2.3267 2.9184-0.07305 0.87074 0.48949 1.9658 1.4367 1.9057 1.4166-0.15016 2.2706-1.729 2.2354-3.1007-0.0091-0.78973-0.50955-1.6905-1.3454-1.7234zm-12.644 1.8049c-0.12855 1.4815 0.90815 3.156 2.4141 3.2493 0.91278-0.06096 1.3432-1.1211 1.2386-1.9598-0.08336-1.2376-0.91082-2.5048-1.9859-2.6704-1.0751-0.16556-1.6839 0.59397-1.6668 1.3809zm7.1486 1.2638c-1.4119 0.00329-2.7028 0.92647-3.3929 2.1755-0.57824 0.93343-1.0509 1.9902-1.1409 3.1053 0.01967 0.86005 0.84028 1.5758 1.6631 1.4045 1.1737-0.15234 2.2225-0.96742 3.443-0.8147 1.0143 0.08097 1.8508 0.86748 2.8748 0.85605 0.99434 0.03734 1.568-1.1021 1.1888-1.9946-0.40805-1.2779-1.1992-2.3893-2.0483-3.3902-0.67736-0.73782-1.5645-1.3746-2.5876-1.3419z" fill="#ac39ac"/>
</svg>
